!!!!SEGMENT: pl-wtm--r-236-m_moniuszko-stanislaw--nie-spie-nie-jem.krn
!!!cenid: 18xx:1642
!!!COM: Moniuszko, Stanisław
!!!COM-rismID: pe30008351
!!!CDT: 1819/05/05-1872/06/04
!!!CNT: Polish
!!!OTL: Nie śpię nie jem
!!!PDT:
!!!AGN: Secular
!!!SMS-siglum: PL-Wtm
!!!SMS-shelfmark: R 236/M
!!!SMS-shelfwork: W
!!!SMS-variant:
!!!SMS-altvar:
!!!NIFC-rismSourceID: 1001063770
!!!NIFC-rismChildID: 1001063770
!!!NIFC-islandoraID:
!!!URL-pdf-islandora:
!!!URL-scan:
!!!IIIF:
!!!ONB-nifc:
!!!AIN: 2 empty
!!!key:
**kern	**dynam	**kern	**dynam	**kern	**text	**dynam
*part2	*part2	*part2	*part2	*part1	*part1	*part1
*staff3	*	*staff2	*	*staff1	*staff1	*
*Iempty	*	*Iempty	*	*Iempty	*	*
*I"	*	*I"	*	*I"	*	*
*clefF4	*	*clefG2	*	*clefG2	*	*
*k[b-]	*	*k[b-]	*	*k[b-]	*	*
*d:	*	*d:	*	*d:	*	*
*M2/4	*	*M2/4	*	*M2/4	*	*
=1	=1	=1	=1	=1	=1	=1
*^	*	*	*	*	*	*
!	!	!	!	!	!LO:TX:t=P:problem=skan 0010	!	!
!	!	!	!	!	!LO:TX:a:t=No 17.	!	!
!	!	!	!	!	!LO:TX:a:t=Dumka.	!	!
(4E/	8E\L	.	8r	p	8a/	Nie	.
!	!	!	!LO:TX:t=P:problem=wykreślone 8e	!	!	!	!
.	8AA'>\	.	8a/ 8g/ 8c#X/ 8A/	.	8a/	spię,	.
4D/	8D\	.	8r	.	16a/LL	nie	.
.	.	.	.	.	16g/JJ	.	.
.	8AA'>\J	.	8a/ 8f/ 8d/ 8A/	.	16f/LL	jém,	.
.	.	.	.	.	16g/JJ	.	.
=2	=2	=2	=2	=2	=2	=2	=2
4C#X/	8C#\L	.	8r	.	8a\	drę-	.
.	8AA'>\	.	8a/ 8g/ 8e/ 8A/	.	8a\	-czę	.
4D/)	8D\	.	8r	.	8.dd\	sie-	.
.	8AA'>\J	.	8a/ 8f/ 8d/ 8A/	.	.	.	.
.	.	.	.	.	16a\	-bie,	.
=3	=3	=3	=3	=3	=3	=3	=3
(4E/	8E\L	.	8r	.	8a/	u-	.
.	8AA'>\	.	8a/ 8g/ 8c#X/ 8A/	.	8a/	-sy-	.
4D/	8D\	.	8r	.	16a/LL	-cham	.
.	.	.	.	.	16g/JJ	.	.
!	!	!	!	!	!LO:TX:t=P:problem=t. 3-4 - poprawiony tekst na "z miłości"	!	!
.	8AA'>\J	.	8a/ 8f/ 8d/ 8A/	.	16f/LL	z mi-	.
.	.	.	.	.	16g/JJ	.	.
=4	=4	=4	=4	=4	=4	=4	=4
4C#X/	8C#\L	.	8r	.	4.a/	-ło-	.
.	8AA'>\J	.	8a/ 8g/ 8e/ 8A/	.	.	.	.
4D/)	4D\	.	8r	.	.	.	.
.	.	.	8a/ 8f/ 8d/ 8A/	.	8a/	-ści	.
*v	*v	*	*	*	*	*	*
!!LO:LB:g=original
=5	=5	=5	=5	=5	=5	=5
!LO:TX:t=P:problem=mixed beam	!	!	!	!	!	!
8G'>\L	.	8r	.	8b-/	czy	.
8GG'/J	.	8b-/ 8g/ 8d/ 8B-/	.	8b-/	już	.
4C^/	.	8r	.	16cc/LL	nie	.
.	.	.	.	16b-/JJ	.	.
.	.	8b-/ 8g/ 8e/ 8B-/	.	16a/LL	ma	.
.	.	.	.	16g/JJ	.	.
=6	=6	=6	=6	=6	=6	=6
!LO:TX:t=P:problem=mixed beam	!	!	!	!	!	!
8FF'/L	.	8r	.	8a/	a-	.
8F'\J	.	8a/ 8f/ 8c/ 8A/	.	8a/	-ni	.
4BB-^/	.	8r	.	8.b-/	w	.
.	.	8f/ 8d/ 8B-/	.	.	.	.
.	.	.	.	16a/	niebie	.
=7	=7	=7	=7	=7	=7	=7
!LO:TX:t=P:problem=mixed beam	!	!	!	!	!	!
8E'\L	.	8r	.	8g/	ni	.
*	*	*	*	*Xtuplet	*	*
8EE'/J	.	8g/ 8d/ 8B-/	.	24g/LL	w lu-	.
.	.	.	.	24a/	.	.
.	.	.	.	24g/JJ	.	.
4AA^/	.	8r	.	8f/	-dziach	.
.	.	8e/ 8c#X/ 8A/	.	8e/	li-	.
=8	=8	=8	=8	=8	=8	=8
8DD/	.	8r	.	(4d/	-to-	.
(16F\LL	.	8d/L 8A/	.	.	.	.
16E\JJ	.	.	.	.	.	.
8D\L)	.	8f/ 8d/ 8A/	.	[4dd\)	.	.
8C'\J	.	8f/J 8A/	.	.	.	.
=9	=9	=9	=9	=9	=9	=9
(4BB-/	.	8r	.	8dd\]	.	.
.	.	8f/ 8d/ 8B-/	.	8dd\	-ści	.
4GG/	.	8r	.	16een\LL	nie	.
.	.	.	.	16dd\JJ	.	.
.	.	8e/ 8c/ 8B-/	.	16cc\LL	ma	.
.	.	.	.	16b-\JJ	.	.
=10	=10	=10	=10	=10	=10	=10
4FF/)	.	8r	.	8a\	a-	.
.	.	8f/ 8c/ 8A/	.	8a\	-ni	.
4GG;/	.	4e-X/ 4B-/ 4G;/	.	8.cc;\	w nie-	.
.	.	.	.	16b-\	-bie	.
!!LO:PB:g=original
=11	=11	=11	=11	=11	=11	=11
!	!	!	!	!LO:TX:a:t=ralent.	!	!
8AAA/	.	8A</L 8F#X<'>/	.	8a/	ni	.
8AA\	.	8d</J 8G#X</ 8E#<'>/	.	16a/LL	w lu-	.
.	.	.	.	16b-/JJ	.	.
8AAA/	.	8Gn</L 8En<'>/	.	16a/LL	-dziach	.
.	.	.	.	16g/JJ	.	.
!	!	!	!	!LO:TX:t=P:problem=8f poprawione na 16f	!	!
8AA\	.	8c#X</J 8A<'>/	.	16f/LL	li-	.
!	!	!	!	!LO:TX:t=P:problem=8e poprawione na 16e	!	!
.	.	.	.	16e/JJ	.	.
=12	=12	=12	=12	=12	=12	=12
!	!	!	!	!	!	!LO:DY:a
(<4DD\	.	8r	.	4.d/	-to-	>
.	.	(8d/L 8F</	.	.	.	.
8D\)	.	8f/ 8A</)	.	.	.	.
8r	.	8a/J 8f/ 8d/	.	8d/	-ści!	]]
=13	=13	=13	=13	=13	=13	=13
*^	*	*	*	*	*	*
!LO:TX:t=P:problem=mixed beam	!	!	!	!	!LO:TX:a:t=a tempo 1mo	!	!
(4A/	8A\L	.	8r	.	8a/	Ma-	.
.	8AA'/J	.	8a/ 8e/ 8c#X/	.	8a/	-tka	.
!LO:TX:t=P:problem=mixed beam	!	!	!	!	!	!	!
4B-/	8B-\L	.	8r	.	16a/LL	mó-	.
.	.	.	.	.	16g/JJ	.	.
.	8AA'/J	.	8f/ 8d/	.	16f/LL	-wi:	.
.	.	.	.	.	16g/JJ	.	.
=14	=14	=14	=14	=14	=14	=14	=14
!LO:TX:t=P:problem=mixed beam	!	!	!	!	!	!	!
4A/	8A\L	.	8r	.	8.a/	on	.
.	8AA'/J	.	8a/ 8e/ 8c#X/	.	.	.	.
.	.	.	.	.	16a/	u-	.
!LO:TX:t=P:problem=mixed beam	!	!	!	!	!	!	!LO:DY:a
4G#X/)	8G#\L	.	8r	.	8.dd\	-bo-	>
.	8AA'/J	.	8bn/ 8f/ 8d/	.	.	.	.
.	.	.	.	.	16a/	-gi,	]
=15	=15	=15	=15	=15	=15	=15	=15
!LO:TX:t=P:problem=mixed beam	!	!	!	!	!	!	!
(4A/	8A\L	.	8r	.	8a/	nie	.
.	8AA'/J	.	8a/ 8e/ 8c#X/	.	8a/	ko-	.
!LO:TX:t=P:problem=mixed beam	!	!	!	!	!	!	!
4B-/	8B-\L	.	8r	.	16a/LL	-chaj	.
.	.	.	.	.	16g/JJ	.	.
.	8AA'/J	.	8f/ 8d/	.	16f/LL	go	.
.	.	.	.	.	16g/JJ	.	.
!!LO:LB:g=original
=16	=16	=16	=16	=16	=16	=16	=16
4A/	8A\L	.	8r	.	4.a/	dzié-	.
.	8AA/J	.	8a/ 8e/ 8c#X/	.	.	.	.
4D\)	4ryy	.	8r	.	.	.	.
.	.	.	8a/ 8f#X/ 8d/	.	8a/	-cię!...	.
*v	*v	*	*	*	*	*	*
=17	=17	=17	=17	=17	=17	=17
(4G\	.	8r	.	8b-\	a	.
.	.	8b-/ 8g/ 8d/	.	8b-\	ja	.
4E-X\	.	8r	.	16cc\LL	ko-	.
.	.	.	.	16b-\JJ	.	.
.	.	8b-/ 8g/ 8e-X/	.	16a/LL	-cham,	.
.	.	.	.	16g/JJ	.	.
=18	=18	=18	=18	=18	=18	=18
*	*	*^	*	*	*	*
4C\	.	8r	8ryy	.	8a/	bo	.
.	.	8a/ 8g/	8e-X\L	.	8a/	nie	.
4D\	.	8r	8.d\	.	8.b-/	bro-	.
.	.	8a/ 8f#X/	.	.	.	.	.
.	.	.	16c\Jk	.	16a/	-gi	.
*	*	*v	*v	*	*	*	*
=19	=19	=19	=19	=19	=19	=19
4GG/	.	8r	.	8g/	szczę-	.
.	.	8g/ 8B-/	.	8g/	-ściem	.
4AA/)	.	8r	.	16a/LL	dla	.
.	.	.	.	16g/JJ	.	.
.	.	8e/ 8c#X/ 8A/	.	16f/LL	mnie	.
.	.	.	.	16e/JJ	.	.
=20	=20	=20	=20	=20	=20	=20
4BB-^/	.	8r	.	(4d/	w swie-	.
*	*	*tremolo	*	*	*	*
.	.	8d/ 8F/L	.	.	.	.
(16AA/LL	.	8d/ 8F/	.	[4dd\)	.	.
16GG/	.	.	.	.	.	.
16FF/	.	8d/ 8F/J	.	.	.	.
16EE/JJ)	.	.	.	.	.	.
*	*	*Xtremolo	*	*	*	*
=21	=21	=21	=21	=21	=21	=21
*2\right	*	*	*	*	*	*
!LO:N:vis=2	!	!	!	!	!	!
(4DD\	.	8r	.	8dd\]	.	.
.	.	8d/ 8F/	.	8dd\	-cie.	.
[4D^\)	.	8r	.	16een\LL	Ko-	.
.	.	.	.	16dd\JJ	.	.
.	.	8e/ 8B-/ 8G/	.	16cc\LL	-cham!	.
.	.	.	.	16b-\JJ	.	.
!!LO:LB:g=original
=22	=22	=22	=22	=22	=22	=22
*^	*	*	*	*	*	*
4D^</]	4DD\	.	8r	.	8a\	bo	.
.	.	.	8f#X/ 8d/ 8A/	.	8a\	nie	.
4GG/ 4GGG;/	4ryy	.	8r	.	8.cc;\	bro-	.
!	!	!	!LO:TX:t=P:problem=♭ przed arpeggio	!	!	!	!
.	.	.	8g/: 8e-X/: 8B-;:/	.	.	.	.
.	.	.	.	.	16b-\	-gi	.
*v	*v	*	*	*	*	*	*
=23	=23	=23	=23	=23	=23	=23
!	!	!	!LO:DY:rj:t=pp.	!LO:TX:a:t=ralent.	!	!
8AAA/	.	8f#X/'>L 8A</	pp	8a\	szczę-	.
8AA\	.	8fn/'> 8G#X</	.	16a\LL	-ściem	.
.	.	.	.	16b-\JJ	.	.
8AAA/	.	8e/'> 8Gn</	.	16a/LL	dla	.
.	.	.	.	16g/JJ	.	.
8AA\	.	8c#X/'>J 8E</	.	16f/LL	mnie	.
.	.	.	.	16e/JJ	.	.
=24	=24	=24	=24	=24	=24	=24
2DD;\	.	8r	.	4.d;/	w świe-	.
.	.	4.d/ 4.D;/	.	.	.	.
!	!	!	!	!LO:TX:t=P:problem=8d poprawione na 8a	!	!
.	.	.	.	8a/	-cie.	.
=25||	=25||	=25||	=25||	=25||	=25||	=25||
*k[bnf#c#]	*	*k[bnf#c#]	*	*k[bnf#c#]	*	*
!	!	!	!	!LO:TX:t=P:znaki:problem= f# zamiast ff#	!	!
!LO:TX:t=P:znaki:problem= f# zamiast ff#	!	!LO:TX:t=P:znaki:problem= f# zamiast ff#	!	!LO:TX:a:t=a tempo, un poco piu vivo.	!	!
8A'\L	.	8r	.	8a/	Lu-	.
8G'\	.	8a/ 8e/ 8c#/	.	8a/	-dzie	.
8F#'\	.	8r	.	16a/LL	stru-	.
.	.	.	.	16g/JJ	.	.
8D'\J	.	8a/ 8f#/ 8d/	.	16f#/LL	-myk	.
.	.	.	.	16g/JJ	.	.
=26	=26	=26	=26	=26	=26	=26
8C#'/L	.	8r	.	8a/	po-	.
8AA'/	.	8a/ 8g/ 8e/	.	8a/	-nad	.
8D'/	.	8r	.	8.dd\	dro-	.
8FF#'/J	.	8a/ 8d/	.	.	.	.
.	.	.	.	16a/	-gą	.
=27	=27	=27	=27	=27	=27	=27
!	!	!	!	!LO:N:vis=16	!	!
8AA'/L	.	8r	.	8a/L	chę-	.
!	!	!	!	!LO:N:vis=16	!	!
8GG'/	.	8a/ 8e/ 8c#/	.	8g/J	-tnie	.
!	!	!	!	!LO:N:vis=16	!	!
8FF#'/	.	8r	.	8f#/L	by	.
!	!	!	!	!LO:N:vis=16	!	!
8DD'/J	.	8a/ 8f#/ 8d/	.	8g/J	wstrzy-	.
=28	=28	=28	=28	=28	=28	=28
*	*	*	*	*^	*	*
!LO:TX:t=P:problem=mixed beam	!	!	!	!LO:N:vis=8.	!	!	!
8CC#'/L	.	8r	.	4.a/	4.a\	-ma-	.
8AAA'/	.	8a/ 8g/ 8e/	.	.	.	.	.
8DD'/	.	8r	.	.	.	.	.
!	!	!	!	!LO:N:vis=16	!	!	!
8F#'\J	.	8a/ 8d/	.	8a/	8a\	-li,	.
*	*	*	*	*v	*v	*	*
!!LO:LB:g=original
=29	=29	=29	=29	=29	=29	=29
8E'/L	.	8r	.	8b\	a-	.
8D'/	.	8g/ 8B/	.	8b\	-le	.
8C#'/	.	8r	.	16cc#\LL	gro-	.
.	.	.	.	16b\JJ	.	.
8BB'/J	.	8g/ 8e/	.	16a/LL	-ble	.
.	.	.	.	16g/JJ	.	.
=30	=30	=30	=30	=30	=30	=30
8AA#X'/L	.	8r	.	8f#/	nie	.
8AAn'/	.	8f#/ 8d#X/ 8B/	.	8f#/	po-	.
8GG#X'/	.	8r	.	8.b/	-mo-	.
8GGn'/J	.	8e/ 8B/	.	.	.	.
.	.	.	.	16e/	-gą,	.
=31	=31	=31	=31	=31	=31	=31
!LO:TX:t=P:problem=mixed beam	!	!	!	!	!	!
8FF#/L	.	8r	.	8f#/	stru-	.
8F#\J	.	8d/ 8B/	.	8f#/	-myk	.
!LO:TX:t=P:problem=mixed beam	!	!	!	!	!	!
8FF#/L	.	8r	.	16f#/LL	pły-	.
.	.	.	.	16e/JJ	.	.
8F#\J	.	8f#/ 8A#X/	.	16d/LL	-nie	.
.	.	.	.	16c#/JJ	.	.
=32	=32	=32	=32	=32	=32	=32
!LO:TX:t=P:problem=mixed beam	!	!	!	!	!	!
8BB'/L	.	8r	.	(4B/	da-	.
(<16f#>\L	.	8f#/L	.	.	.	.
16e>\JJ	.	.	.	.	.	.
!LO:TX:t=P:problem=mixed beam	!	!	!	!	!	!
16d>\LL	.	8f#/	.	[4dd\)	.	.
16c#/	.	.	.	.	.	.
16B/	.	8f#/J 8d/	.	.	.	.
16A/JJ)	.	.	.	.	.	.
=33	=33	=33	=33	=33	=33	=33
(4G#X\	.	8r	.	8dd\]	.	.
.	.	8b/ 8e/ 8d/	.	16cc#\LL	-lej,	.
.	.	.	.	16dd\JJ	.	.
4Gn\	<	8r	.	16ee\LL	gro-	.
.	.	.	.	16dd\JJ	.	.
.	.	8cc#/ 8a/ 8e/	.	16cc#\LL	-ble	.
.	.	.	.	16b\JJ	.	.
=34	=34	=34	=34	=34	=34	=34
4F#\)	.	8r	.	8aS/	nie	.
.	[	8dd/: 8a/: 8d':/	.	16g#X/LL	po-	.
.	.	.	.	16a/JJ	.	.
8.c#\L 8.G;\	>	8.a#X/L 8.e;/	.	8.cc#;\	-mo-	.
16d\Jk 16G#X\	]	16b/Jk 16e#X/	.	16b\	-gą	.
=35	=35	=35	=35	=35	=35	=35
!	!	!	!	!LO:TX:a:t=a tempo.	!	!
8A'\L	pp	8f#/L 8d'/	.	8a/	stru-	.
8A'\	.	8b/ 8d#X'/	.	16a/LL	-myk	.
.	.	.	.	16b/JJ	.	.
8A'\	.	8g/ 8e'/	.	16a/LL	pły-	.
.	.	.	.	16g/JJ	.	.
8A'\J	.	8cc#/J 8a'/	.	16f#/LL	-nie	.
.	.	.	.	16e/JJ	.	.
=36	=36	=36	=36	=36	=36	=36
*ped	*	*	*	*	*	*
(8DD/	.	4.dd/ 4.f#/	.	4.d/	da-	.
16D\LL	.	.	.	.	.	.
16F#\JJ	.	.	.	.	.	.
!LO:TX:t=P:problem=mixed beam	!	!	!	!	!	!
16A/LL	.	.	.	.	.	.
16d>\JJ	.	.	.	.	.	.
!LO:TX:t=P:problem=mixed beam	!	!	!	!	!	!
16f#>/LL	.	8ryy	.	8d/	-lej.	.
16ff#>\JJ)	.	.	.	.	.	.
!!LO:LB:g=original
=37	=37	=37	=37	=37	=37	=37
(8DD/	.	4.dd\	.	2ryy	.	.
!LO:TX:b:t=ralent.	!	!	!	!	!	!
16AA/LL	.	.	.	.	.	.
16D/JJ	.	.	.	.	.	.
16A\LL	.	.	.	.	.	.
16d\JJ	.	.	.	.	.	.
!LO:TX:t=P:problem=mixed beam	!	!	!	!	!	!
16fn>/LL	.	8ryy	.	.	.	.
16ffn>\JJ)	.	.	.	.	.	.
=38	=38	=38	=38	=38	=38	=38
4r	.	4dd\	.	2ryy	.	.
8A\ 8D\	.	8fn/ 8d'/	.	.	.	.
8r	.	8r	.	.	.	.
=39	=39	=39	=39	=39	=39	=39
2DD\	.	2d/ 2A</ 2Fn<;/	.	2ryy	.	.
==	==	==	==	==	==	==
*-	*-	*-	*-	*-	*-	*-
!!!system-decoration: [s1{(s2,s3)}]
!!!RDF**kern: > = above
!!!RDF**kern: < = below
!!!EED: Leszek Kubiak
!!!EEV: 2021-04-16
!!!ENC: Katarzyna Serwa
!!!END: 2021-03-29
!!!YEC: Copyright 2022 Narodowy Instytut Fryderyka Chopina (https://polishscores.org)
!!!YEM: License CC-BY-4.0 (https://creativecommons.org/licenses/by/4.0)
